X: 1
T: Christmas Day Ida Morning
O: trad. Shetland
M: 6/8
%P: (AABBAB)x3 for Darlene's dance
K: D
"^A"|:\ 
"D"f2d f3 | "A"e2d c2A | "G"B2G d2c | "(Em)"BG2 G3 |
"A(Em)"e2f g2f | e2d c2B | "A7"A2{B}A ABc | "D"d3 d3 :|
"^B"|:\
"Em"e3 (4e-def | "(G)"g3 B3 | "A"A2{B}A A2A | "G"B2c dB2 |
"Em"e3 (4e-def | "(G)"g3 B3 | "A"A2e "G"dB2 | "A"A3 A3 :| 
